static/img/menus/ico-disarms.svg

<svg width="16" height="16" viewBox="0 0 16 16" fill="none" xmlns="http://www.w3.org/2000/svg">
<g clip-path="url(#clip0_317_48)">
<path d="M7.85852 15.0306C3.85852 14.364 1.85852 12.0306 1.85852 8.03064V2.63064L7.85852 2.03064L13.8585 2.55564V8.03064C13.8585 12.0306 11.8585 14.364 7.85852 15.0306ZM7.85852 7.53064H7.75852C7.53074 7.5001 7.31962 7.39454 7.15852 7.23064C7.05818 7.14478 6.97894 7.03699 6.92692 6.91561C6.8749 6.79423 6.85149 6.66251 6.85852 6.53064C6.86307 6.25229 6.96985 5.98534 7.15852 5.78064C7.35558 5.61808 7.60307 5.52917 7.85852 5.52917C8.11398 5.52917 8.36147 5.61808 8.55852 5.78064C8.74719 5.98534 8.85397 6.25229 8.85852 6.53064C8.86555 6.66251 8.84214 6.79423 8.79012 6.91561C8.7381 7.03699 8.65886 7.14478 8.55852 7.23064C8.46851 7.3258 8.35997 7.40151 8.23958 7.4531C8.11919 7.5047 7.9895 7.53109 7.85852 7.53064V11.0306Z" fill="#00AB88"/>
<path d="M7.85852 7.53064H7.75852C7.53074 7.5001 7.31962 7.39454 7.15852 7.23064C7.05818 7.14478 6.97894 7.03699 6.92692 6.91561C6.8749 6.79423 6.85149 6.66251 6.85852 6.53064C6.86307 6.25229 6.96985 5.98534 7.15852 5.78064C7.35558 5.61808 7.60307 5.52917 7.85852 5.52917C8.11398 5.52917 8.36147 5.61808 8.55852 5.78064C8.74719 5.98534 8.85397 6.25229 8.85852 6.53064C8.86555 6.66251 8.84214 6.79423 8.79012 6.91561C8.7381 7.03699 8.65886 7.14478 8.55852 7.23064C8.46851 7.3258 8.35997 7.40151 8.23958 7.4531C8.11919 7.5047 7.9895 7.53109 7.85852 7.53064ZM7.85852 7.53064V11.0306M7.85852 15.0306C3.85852 14.364 1.85852 12.0306 1.85852 8.03064V2.63064L7.85852 2.03064L13.8585 2.55564V8.03064C13.8585 12.0306 11.8585 14.364 7.85852 15.0306Z" stroke="black" stroke-linecap="round" stroke-linejoin="round"/>
<path d="M12.2372 14.0051L1.59097 3.3588C1.1036 2.87143 1.1036 2.07841 1.59097 1.59104C2.07834 1.10366 2.87136 1.10366 3.35874 1.59104L14.005 12.2373C14.4924 12.7247 14.4924 13.5177 14.005 14.0051C13.5176 14.4924 12.7246 14.4924 12.2372 14.0051Z" fill="#FF0000"/>
<path d="M3.00518 1.94454C2.71229 1.65165 2.23741 1.65165 1.94452 1.94454C1.65163 2.23743 1.65163 2.71231 1.94452 3.0052L12.5908 13.6515C12.8837 13.9444 13.3586 13.9444 13.6514 13.6515C13.9443 13.3586 13.9443 12.8837 13.6514 12.5908L3.00518 1.94454ZM3.71229 1.23744L14.3585 11.8837C15.0409 12.566 15.0409 13.6762 14.3585 14.3586C13.6762 15.0409 12.566 15.0409 11.8837 14.3586L1.23742 3.71231C0.555095 3.02999 0.555094 1.91976 1.23742 1.23744C1.91974 0.555114 3.02997 0.555115 3.71229 1.23744Z" fill="#212126"/>
</g>
<defs>
<clipPath id="clip0_317_48">
<rect width="16" height="16" fill="white"/>
</clipPath>
</defs>
</svg>

<svg xmlns="http://www.w3.org/2000/svg" width="16" height="16" fill="none" viewBox="0 0 16 16"><g clip-path="url(#a)"><path fill="#00ab88" d="M7.859 15.03q-6-1-6-7v-5.4l6-.6 6 .526V8.03q0 6-6 7m0-7.5h-.1a1.03 1.03 0 0 1-.6-.3.86.86 0 0 1-.3-.7c.004-.278.11-.545.3-.75a1.1 1.1 0 0 1 1.4 0c.188.205.295.472.3.75a.86.86 0 0 1-.3.7.96.96 0 0 1-.7.3v3.5Z"/><path stroke="#000" stroke-linecap="round" stroke-linejoin="round" d="M7.859 7.53h-.1a1.03 1.03 0 0 1-.6-.3.86.86 0 0 1-.3-.7c.004-.278.11-.545.3-.75a1.1 1.1 0 0 1 1.4 0c.188.205.295.472.3.75a.86.86 0 0 1-.3.7.96.96 0 0 1-.7.3m0 0v3.5m0 4q-6-1-6-7v-5.4l6-.6 6 .526V8.03q0 6-6 7"/><path fill="red" d="M12.237 14.005 1.591 3.36a1.25 1.25 0 0 1 0-1.768 1.25 1.25 0 0 1 1.768 0l10.646 10.646c.487.488.487 1.28 0 1.768a1.25 1.25 0 0 1-1.768 0"/><path fill="#212126" d="M3.005 1.945a.75.75 0 0 0-1.06 1.06L12.59 13.652a.75.75 0 1 0 1.06-1.061zm.707-.708L14.36 11.884a1.75 1.75 0 0 1 0 2.475 1.75 1.75 0 0 1-2.475 0L1.237 3.712a1.75 1.75 0 0 1 0-2.475 1.75 1.75 0 0 1 2.475 0"/></g><defs><clipPath id="a"><path fill="#fff" d="M0 0h16v16H0z"/></clipPath></defs></svg>
